X:1
T:Polska ur Kantor Göranssons notbok
R:Polska
S:Ur Kantor Göranssons notbok
O:Tullstorp, Skåne
B:Skånska Melodier nr. 329
Z:ABC-transkribering av Sven Midgren
M:3/4
L:1/16
K:C
|:CEGc ecBd c4 | EGce gfag gfef | g2ge a2ag fedc | gBce dcBA AFED |
 CEGc ecBd c4 | EGce gfag gfef | g2ge a2ag fedc | cBAB [d4G4] [c4E4]:|
|: G4 BABc d^cde | fefg a^gaf d2e2 | faga fdBd cBAG | cBce dcBA GFED|
 CEGc ecBd c4 | EGce gfag gfef | g2ge a2ag fedc | cBAB [d4G4] [c4E4]:|

